X: 36537
T: Set Américain
R: reel
M: 4/4
K: Bminor
(3ABc|:dAFA DAFA|EAFA D2 (3ABc|dAFA DAFA|(3eee df e2 (3ABc|
dAFA DAFA|EAFA D2 (3ABc|dcdf ed (3ABc|1 dfec d2 (3ABc:|2 dfec d2 c2||
B3 c dcde|fefg fedc|BABc dcBA|GFGA G2 F2|
BABc dcde|fefg fedc|BABc dcBA|Bbfd B2 dc|
BABc dcde|fefg fedc|BABc dcBA|GFGA G2 F2|
BABc dcde|fefg fedc|BABc dcBA|Bbfd B2 (3ABc||

